file/baltimore-aquarium.svg

<svg clip-rule="evenodd" fill-rule="evenodd" stroke-linejoin="round" stroke-miterlimit="1.41421" viewBox="0 0 560 400" xmlns="http://www.w3.org/2000/svg"><g fill="#0094d9" fill-rule="nonzero" transform="matrix(2.01748 0 0 2.01748 -171.816 -139.036)"><path d="m226.8 93.8c-25.5-.8-45.4 9.8-59.4 26.7 15.4-4.8 36-15.3 40.8-16-26.2 41.7 46.4 1.4 54.8 0-14 22.3.1 20.9 17.5 14.8-13.1-15.2-31.9-24.8-53.7-25.5z"/><path d="m288.8 188c-9.5 1.4-80.5 41.3-54.7.1-9.5 1.4-80.4 40.5-54.6-.6-3.2.5-12.9 4.9-23.6 9.4-3.9-8.9-5.7-17.9-5.8-28.3 5-2.2 8.7-3.7 10.5-4.1-30 43.3 43.1 2.6 55.4-.2-30.2 43.7 44.3 2.5 54.5.3-19.9 28.7 5.1 20.5 27.8 10.9-1.1 11.4-4.2 21.1-9.8 30.4-6.3-.7-7.9-4.8.3-17.9"/><path d="m170.5 219.1c13.4-5.4 26.5-11.8 30.4-12.6-30 43.3 42.9 2.3 55.2-.5-18.1 26.3 1 21.8 21.8 13.6-14.1 14.8-33.9 23.4-55.9 22.7-20.3-.7-38.5-9.4-51.5-23.2"/><path d="m149.6 162.9c.8-12.8 5.1-24.1 11.5-34.2 6.9-3.1 11.3-5.1 13.6-5.6-30.2 43.7 44.9 2.2 55.2-.1-30.2 43.7 43.7 2.7 53.9.5-14.3 20.6-5.6 21.6 9 17.3 1.3 3 1.8 4.7 2.6 7.9-19 7.7-70.4 33.9-47.6-2.5-7.3 1.2-81.8 42.5-55-.1-5 .7-27.5 12.4-43.2 16.8"/><path d="m258 214.9c1.4.1 2.6-1.1 2.6-2.5.1-1.4-1.1-2.6-2.5-2.6-1.4-.1-2.6 1.1-2.6 2.5 0 1.5 1.1 2.6 2.5 2.6"/><path d="m203.1 215.1c1.4 0 2.6-1.1 2.6-2.5s-1.1-2.6-2.5-2.6c-1.4-.1-2.6 1.1-2.6 2.5-.1 1.5 1 2.6 2.5 2.6"/><path d="m217.4 173.7c1.4 0 2.6-1.1 2.6-2.5.1-1.4-1.1-2.6-2.5-2.6s-2.6 1.1-2.6 2.5c0 1.3 1.1 2.5 2.5 2.6"/><path d="m272.7 173.5c1.4.1 2.6-1.1 2.6-2.5.1-1.4-1.1-2.6-2.5-2.6-1.4-.1-2.6 1.1-2.6 2.5-.1 1.3 1.1 2.5 2.5 2.6"/><path d="m231.9 132.3c1.4.1 2.6-1.1 2.6-2.5s-1.1-2.6-2.5-2.6-2.6 1.1-2.6 2.5 1.1 2.6 2.5 2.6"/><path d="m162.3 173.5c1.4 0 2.6-1.1 2.6-2.5.1-1.4-1.1-2.6-2.5-2.6s-2.6 1.1-2.6 2.5c0 1.3 1.1 2.5 2.5 2.6"/><path d="m176.8 132.3c1.4.1 2.6-1.1 2.6-2.5s-1.1-2.6-2.5-2.6-2.6 1.1-2.6 2.5 1 2.6 2.5 2.6"/></g></svg>

<?xml version="1.0" encoding="UTF-8" standalone="no"?>
<!DOCTYPE svg PUBLIC "-//W3C//DTD SVG 1.1//EN" "http://www.w3.org/Graphics/SVG/1.1/DTD/svg11.dtd">
<svg width="100%" height="100%" viewBox="0 0 560 400" version="1.1" xmlns="http://www.w3.org/2000/svg" xmlns:xlink="http://www.w3.org/1999/xlink" xml:space="preserve" xmlns:serif="http://www.serif.com/" style="fill-rule:evenodd;clip-rule:evenodd;stroke-linejoin:round;stroke-miterlimit:1.41421;">
    <g transform="matrix(2.01748,0,0,2.01748,-171.816,-139.036)">
        <path d="M226.8,93.8C201.3,93 181.4,103.6 167.4,120.5C182.8,115.7 203.4,105.2 208.2,104.5C182,146.2 254.6,105.9 263,104.5C249,126.8 263.1,125.4 280.5,119.3C267.4,104.1 248.6,94.5 226.8,93.8Z" style="fill:rgb(0,148,217);fill-rule:nonzero;"/>
        <path d="M288.8,188C279.3,189.4 208.3,229.3 234.1,188.1C224.6,189.5 153.7,228.6 179.5,187.5C176.3,188 166.6,192.4 155.9,196.9C152,188 150.2,179 150.1,168.6C155.1,166.4 158.8,164.9 160.6,164.5C130.6,207.8 203.7,167.1 216,164.3C185.8,208 260.3,166.8 270.5,164.6C250.6,193.3 275.6,185.1 298.3,175.5C297.2,186.9 294.1,196.6 288.5,205.9C282.2,205.2 280.6,201.1 288.8,188" style="fill:rgb(0,148,217);fill-rule:nonzero;"/>
        <path d="M170.5,219.1C183.9,213.7 197,207.3 200.9,206.5C170.9,249.8 243.8,208.8 256.1,206C238,232.3 257.1,227.8 277.9,219.6C263.8,234.4 244,243 222,242.3C201.7,241.6 183.5,232.9 170.5,219.1" style="fill:rgb(0,148,217);fill-rule:nonzero;"/>
        <path d="M149.6,162.9C150.4,150.1 154.7,138.8 161.1,128.7C168,125.6 172.4,123.6 174.7,123.1C144.5,166.8 219.6,125.3 229.9,123C199.7,166.7 273.6,125.7 283.8,123.5C269.5,144.1 278.2,145.1 292.8,140.8C294.1,143.8 294.6,145.5 295.4,148.7C276.4,156.4 225,182.6 247.8,146.2C240.5,147.4 166,188.7 192.8,146.1C187.8,146.8 165.3,158.5 149.6,162.9" style="fill:rgb(0,148,217);fill-rule:nonzero;"/>
        <path d="M258,214.9C259.4,215 260.6,213.8 260.6,212.4C260.7,211 259.5,209.8 258.1,209.8C256.7,209.7 255.5,210.9 255.5,212.3C255.5,213.8 256.6,214.9 258,214.9" style="fill:rgb(0,148,217);fill-rule:nonzero;"/>
        <path d="M203.1,215.1C204.5,215.1 205.7,214 205.7,212.6C205.7,211.2 204.6,210 203.2,210C201.8,209.9 200.6,211.1 200.6,212.5C200.5,214 201.6,215.1 203.1,215.1" style="fill:rgb(0,148,217);fill-rule:nonzero;"/>
        <path d="M217.4,173.7C218.8,173.7 220,172.6 220,171.2C220.1,169.8 218.9,168.6 217.5,168.6C216.1,168.6 214.9,169.7 214.9,171.1C214.9,172.4 216,173.6 217.4,173.7" style="fill:rgb(0,148,217);fill-rule:nonzero;"/>
        <path d="M272.7,173.5C274.1,173.6 275.3,172.4 275.3,171C275.4,169.6 274.2,168.4 272.8,168.4C271.4,168.3 270.2,169.5 270.2,170.9C270.1,172.2 271.3,173.4 272.7,173.5" style="fill:rgb(0,148,217);fill-rule:nonzero;"/>
        <path d="M231.9,132.3C233.3,132.4 234.5,131.2 234.5,129.8C234.5,128.4 233.4,127.2 232,127.2C230.6,127.2 229.4,128.3 229.4,129.7C229.4,131.1 230.5,132.3 231.9,132.3" style="fill:rgb(0,148,217);fill-rule:nonzero;"/>
        <path d="M162.3,173.5C163.7,173.5 164.9,172.4 164.9,171C165,169.6 163.8,168.4 162.4,168.4C161,168.4 159.8,169.5 159.8,170.9C159.8,172.2 160.9,173.4 162.3,173.5" style="fill:rgb(0,148,217);fill-rule:nonzero;"/>
        <path d="M176.8,132.3C178.2,132.4 179.4,131.2 179.4,129.8C179.4,128.4 178.3,127.2 176.9,127.2C175.5,127.2 174.3,128.3 174.3,129.7C174.3,131.1 175.3,132.3 176.8,132.3" style="fill:rgb(0,148,217);fill-rule:nonzero;"/>
    </g>
</svg>
